app/assets/images/heroicons/micro/strikethrough.svg

<svg width="16" height="16" viewBox="0 0 16 16" fill="none" xmlns="http://www.w3.org/2000/svg">
<path fill-rule="evenodd" clip-rule="evenodd" d="M9.16461 3.65371C8.2154 3.39936 7.244 3.38098 6.47247 3.61247C5.70301 3.84334 5.38517 4.23583 5.29859 4.55895C5.21201 4.88208 5.29102 5.3809 5.84196 5.96557C6.23056 6.37797 6.76892 6.73532 7.39275 7.00044H13C13.4142 7.00044 13.75 7.33622 13.75 7.75044C13.75 8.16465 13.4142 8.50044 13 8.50044H3C2.58579 8.50044 2.25 8.16465 2.25 7.75044C2.25 7.33622 2.58579 7.00044 3 7.00044H4.75609C4.75415 6.99838 4.75221 6.99633 4.75027 6.99427C3.96336 6.15918 3.58853 5.14541 3.8497 4.17072C4.11086 3.19604 4.94236 2.5055 6.04139 2.17574C7.13836 1.84661 8.40084 1.89614 9.55284 2.20482C10.303 2.40582 11.031 2.72298 11.6622 3.14374C12.0068 3.37348 12.1 3.83913 11.8703 4.18379C11.6405 4.52845 11.1749 4.6216 10.8302 4.39186C10.3483 4.07064 9.77313 3.81676 9.16461 3.65371ZM11.2387 10.0192C11.6402 9.91746 12.0481 10.1605 12.1499 10.562C12.3301 11.2736 12.2121 11.9876 11.7987 12.5856C11.3938 13.1712 10.747 13.5887 9.95829 13.8253C8.86132 14.1545 7.59884 14.105 6.44684 13.7963C5.29484 13.4876 4.17674 12.8993 3.3913 12.0657C3.10723 11.7643 3.12133 11.2896 3.42279 11.0055C3.72426 10.7215 4.19892 10.7356 4.48299 11.037C5.03541 11.6233 5.88585 12.093 6.83507 12.3474C7.78429 12.6017 8.75569 12.6201 9.52722 12.3886C10.077 12.2237 10.3996 11.9715 10.5648 11.7326C10.7215 11.5059 10.7743 11.2403 10.6958 10.9304C10.5941 10.5289 10.8371 10.1209 11.2387 10.0192Z" fill="black"/>
</svg>

<svg xmlns="http://www.w3.org/2000/svg" viewBox="0 0 16 16" fill="currentColor" aria-hidden="true" data-slot="icon">
  <path fill-rule="evenodd" d="M9.165 3.654c-.95-.255-1.921-.273-2.693-.042-.769.231-1.087.624-1.173.947-.087.323-.008.822.543 1.407.389.412.927.77 1.55 1.034H13a.75.75 0 0 1 0 1.5H3A.75.75 0 0 1 3 7h1.756l-.006-.006c-.787-.835-1.161-1.849-.9-2.823.26-.975 1.092-1.666 2.191-1.995 1.097-.33 2.36-.28 3.512.029.75.2 1.478.518 2.11.939a.75.75 0 0 1-.833 1.248 5.682 5.682 0 0 0-1.665-.738Zm2.074 6.365a.75.75 0 0 1 .91.543 2.44 2.44 0 0 1-.35 2.024c-.405.585-1.052 1.003-1.84 1.24-1.098.329-2.36.279-3.512-.03-1.152-.308-2.27-.897-3.056-1.73a.75.75 0 0 1 1.092-1.029c.552.586 1.403 1.056 2.352 1.31.95.255 1.92.273 2.692.042.55-.165.873-.417 1.038-.656a.942.942 0 0 0 .13-.803.75.75 0 0 1 .544-.91Z" clip-rule="evenodd"/>
</svg>
